X: 7547
T:Out on the Ocean
R:Jig
O:Scotland
M:6/8
K:G
D|\
G2B {c}BAG|BdB A2B|GED G2A |{c}BAB AGE|\
D2B {c}BAG|BdB A2B|GED G2A|BGG G2:|
|:d|\
e3 edB|efe edB|d3-def|gfe dBA | \
G2A B2d|ege dBA|GED G2A|BGG G2:|
